X:1
T:NSF - Tourdion
T:hos Pierre Attaingnant, 1530
%%score [ 1 2 3 4 ]
L:1/8
Q:1/4=284
M:3/2
K:D
V:1 treble nm="S"
V:2 treble nm="A"
V:3 treble-8 nm="T"
V:4 bass nm="B"
V:1
"^Frisk" E2 F2 G2 A2 G2 F2 | E6 F2 G2 A2 | B2 A2 G2 G2 A2 F2 | (G4 F2 E2) D4 | E2 F2 G2 A2 G2 F2 | %5
w: Quand je bois du vin clai-|ret, a- mi tout|tour- ne, tour- ne, tour- ne,|tour- * * ne,|aus- si dé- sour- mais je|
 E4 G4 F4 | E8 D4 | E12 :: B6 A2 B2 c2 | B8 B4 | d2 c2 B2 A2 G2 F2 | G6 F2 E4 | B6 A2 B2 c2 | %13
w: bois An- jou|ou Ar-|bois,|chan- tons et bu-|vons, à|ce fla- con fai- sons la|guer- * re,|chan- tons et bu-|
 B4 A2 G2 F4 | E8 D4 | E12 :| %16
w: vons, mes a- mis,|bu- vons|donc!|
V:2
 B,8 B,4 | E8 E4 | D8 E4 | E4 A8 | G8 E4 | B,2 A,2 B,2 C2 D4 | B,4 B,8 | B,12 :: G8 G4 | G8 G4 | %10
w: Le bon~|vin~ nous~|a~ ren-|du~ gais,~|chan- tons,~|ou- bli- ons~ nos~ pei-|nes,~ chan-|tons.~|En~ man-|geant~ d'un~|
 F8 F4 | E8 E4 | D8 D4 | D8 D4 | B,4 B,8 | B,12 :| %16
w: gras~ jam-|bon,~ à|ce~ fla-|con~ fai-|sons~ la~|guerre.~|
V:3
 G8 E4 | B8 B4 | B4 B4 =c4 | B8 A4 | B8 B4 | G8 A4 | G4 F2 E2 F4 | E12 :: e8 e4 | d8 d4 | d8 d4 | %11
w: Bu- vons|bien, bu-|vons mes a-|mis, trin-|quons bu-|vons, gaie-|ment chan- * Ar-|tons!|En~ man-|geant~ d'un~|gras~ jam-|
 B8 B4 | B8 B4 | B8 A4 | G4 F8 | E12 :| %16
w: bon,~ à|ce~ fla-|con~ fai-|sons~ la~|guerre.~|
V:4
 E,8 E,4 | E,8 E,4 | G,4 B,4 A,4 | E,4 F,8 | E,8 E,4 | E,8 D,4 | E,4 B,,8 | E,12 :: E,8 E,4 | %9
w: Bu- vons~|bien,~ Bu-|vons mes a-|mis, trin-|quons, bu-|vons, gaie-|ment chan-|tons!|En~ man-|
 G,8 G,4 | D,8 D,4 | E,8 E,4 | G,8 G,4 | G,8 D,4 | E,4 B,,8 | E,12 :| %16
w: geant~ d'un~|gras~ jam-|bon,~ à|ce~ fla-|con~ fai-|sons~ la~|guerre.~|

